src/assets/img/typescript.svg

<svg width="76" height="75" viewBox="0 0 76 75" fill="none" xmlns="http://www.w3.org/2000/svg">
<path d="M75.4317 5.96862C74.8855 3.10368 72.6666 0.784447 69.8332 0.170532C69.6966 0.136426 69.5601 0.136426 69.3894 0.102319C69.3553 0.102319 69.3211 0.0341064 69.287 0H6.67888C6.64474 0.0341064 6.61061 0.102319 6.54233 0.102319C3.70892 0.579809 1.3193 2.83083 0.670687 5.69577C0.63655 5.79809 0.568275 5.93452 0.5 6.07094V68.7926C0.534137 68.8608 0.602412 68.895 0.602412 68.9632C1.28516 72.101 3.19686 74.045 6.30337 74.8295C6.40578 74.8636 6.47406 74.9318 6.54233 75H69.3894C69.4577 74.9659 69.4918 74.8977 69.5601 74.8636C72.6666 74.1473 74.5783 72.2715 75.3634 69.1678C75.3976 69.0655 75.3634 68.9291 75.3976 68.8267C75.3976 68.7926 75.4659 68.7585 75.5 68.7244V6.17326C75.5 6.10505 75.4317 6.07094 75.4317 5.96862ZM44.0253 41.5757H43.6497C40.8163 41.5757 37.9488 41.5757 35.1154 41.5757C34.9788 41.5757 34.8423 41.5757 34.7057 41.5757C34.7057 41.6098 34.6716 41.6098 34.6716 41.6439C34.6716 41.7804 34.6716 41.9168 34.6716 42.0532V68.3493H27.1955V41.6098H17.8077V35.6412H43.9911V41.5757H44.0253ZM69.2187 59.4134C69.1504 60.573 68.9797 61.6985 68.5018 62.7899C68.3653 63.131 68.2629 63.4379 68.0922 63.779C67.4777 65.075 66.4536 65.9959 65.2588 66.7462C63.8933 67.5989 62.3912 68.0764 60.8209 68.3834C59.0799 68.7244 57.3389 68.8267 55.5637 68.7585C54.7103 68.7244 53.8569 68.7244 53.0034 68.6221C50.9893 68.3834 49.0093 67.94 47.1659 67.0532C47.0635 67.0191 46.9269 66.8486 46.9269 66.7462C46.9269 64.5293 46.9269 62.3124 46.9269 60.0955C46.9269 60.0614 46.9269 60.0273 46.9269 59.9591C47.4731 60.3342 48.0193 60.7094 48.5655 61.0164C49.8969 61.8008 51.3648 62.3465 52.8669 62.6876C54.1641 62.9945 55.4613 63.0287 56.7585 62.9604C57.7485 62.9263 58.7385 62.6876 59.6261 62.2442C60.4112 61.8349 61.0599 61.2892 61.2305 60.3684C61.4012 59.5498 61.333 58.7312 60.855 58.015C60.1723 56.9918 59.2164 56.3438 58.1582 55.7981C56.9634 55.2183 55.7686 54.7067 54.5396 54.161C52.7303 53.3424 50.9552 52.4557 49.4873 51.0914C48.2924 49.9659 47.4049 48.6357 46.9952 47.0327C46.7563 46.0778 46.688 45.1228 46.7221 44.1678C46.7563 41.8145 47.6097 39.8022 49.2824 38.131C50.6479 36.7667 52.3207 35.9482 54.1641 35.4707C55.4272 35.1637 56.6903 34.925 57.9875 34.8909C58.9092 34.8909 59.8309 34.7885 60.7185 34.8226C62.1181 34.8568 63.4836 34.925 64.8491 35.266C65.7367 35.5048 66.6584 35.7435 67.546 35.9482C67.7167 35.9823 67.7849 36.0846 67.7849 36.2892C67.7849 38.4038 67.7849 40.5525 67.7849 42.6671C67.7849 42.7353 67.7849 42.8035 67.7508 42.9059C67.4777 42.7353 67.2387 42.5989 66.9998 42.4625C65.9074 41.8486 64.7467 41.4393 63.5519 41.1323C62.2205 40.8254 60.8892 40.6207 59.5237 40.6548C58.602 40.6889 57.6461 40.8254 56.7927 41.1323C55.7344 41.5075 54.881 42.1214 54.5055 43.2469C54.1982 44.1337 54.4372 44.884 54.9834 45.6003C55.6661 46.487 56.5878 47.101 57.5778 47.5784C58.9092 48.2265 60.2747 48.7722 61.5719 49.3861C63.074 50.1023 64.576 50.8186 65.8391 51.8759C66.9315 52.7967 67.9215 53.8199 68.4677 55.1842C68.7749 56.0027 69.048 56.8554 69.048 57.7763C69.1846 58.322 69.2528 58.8677 69.2187 59.4134Z" fill="#0074c2"/>
</svg>

<svg width="76" height="75" fill="none" xmlns="http://www.w3.org/2000/svg"><path d="M75.432 5.969C74.885 3.104 72.667.784 69.833.17c-.136-.035-.273-.035-.444-.069-.034 0-.068-.068-.102-.102H6.679c-.034.034-.068.102-.137.102C3.71.58 1.32 2.831.671 5.696A3.321 3.321 0 0 1 .5 6.07v62.722c.034.068.102.102.102.17.683 3.138 2.595 5.082 5.701 5.867.103.034.171.102.24.17h62.846c.069-.034.103-.102.171-.136 3.107-.717 5.018-2.593 5.803-5.696.035-.103 0-.239.035-.341 0-.034.068-.069.102-.103V6.174c0-.069-.068-.103-.068-.205ZM44.025 41.576h-9.32c0 .034-.033.034-.033.068V68.349h-7.476V41.61h-9.388v-5.968H43.99v5.935h.034ZM69.22 59.413c-.069 1.16-.24 2.286-.717 3.377-.137.341-.24.648-.41.989-.614 1.296-1.638 2.217-2.833 2.967-1.366.853-2.868 1.33-4.438 1.637-1.741.341-3.482.444-5.257.376-.854-.035-1.707-.035-2.56-.137-2.015-.239-3.995-.682-5.838-1.569-.102-.034-.24-.204-.24-.307V59.96c.547.375 1.093.75 1.64 1.057 1.33.785 2.799 1.33 4.3 1.672 1.298.306 2.595.34 3.892.272a6.981 6.981 0 0 0 2.868-.716c.785-.41 1.434-.955 1.605-1.876.17-.818.102-1.637-.376-2.353-.683-1.023-1.639-1.671-2.697-2.217-1.195-.58-2.39-1.091-3.618-1.637-1.81-.819-3.585-1.705-5.053-3.07-1.195-1.125-2.082-2.455-2.492-4.058-.239-.955-.307-1.91-.273-2.865.034-2.353.888-4.366 2.56-6.037 1.366-1.364 3.039-2.183 4.882-2.66 1.263-.307 2.526-.546 3.823-.58.922 0 1.844-.102 2.731-.068 1.4.034 2.766.102 4.131.443.888.239 1.81.477 2.697.682.17.034.239.137.239.341v6.378c0 .068 0 .136-.034.239-.273-.17-.512-.307-.751-.444-1.093-.613-2.253-1.023-3.448-1.33-1.331-.307-2.663-.511-4.028-.477-.922.034-1.878.17-2.731.477-1.059.376-1.912.99-2.288 2.115-.307.887-.068 1.637.478 2.353.683.887 1.605 1.501 2.595 1.978 1.331.648 2.697 1.194 3.994 1.808 1.502.716 3.004 1.433 4.267 2.49 1.093.92 2.082 1.944 2.629 3.308.307.819.58 1.671.58 2.592a5.35 5.35 0 0 1 .17 1.637Z" fill="#0074c2"/></svg>
